src/mimes/48/text-x-qml.svg

<svg width="48" height="48" version="1.1" xmlns="http://www.w3.org/2000/svg">
 <defs>
  <linearGradient id="b" x1="25.132" x2="25.132" y1=".98521" y2="47.013" gradientTransform="matrix(1 0 0 .95617 9.9862e-8 -.51792)" gradientUnits="userSpaceOnUse">
   <stop stop-color="#dadada" offset="0"/>
   <stop stop-color="#fff" offset="1"/>
  </linearGradient>
  <radialGradient id="a" cx="26.53" cy="23.566" r="17.5" gradientTransform="matrix(-1.7302 -.0033869 .0034626 -1.7689 87.322 43.647)" gradientUnits="userSpaceOnUse">
   <stop stop-opacity=".65926" offset="0"/>
   <stop stop-color="#cecece" stop-opacity="0" offset="1"/>
  </radialGradient>
  <linearGradient id="c" x1="91.308" x2="95.182" y1="98.192" y2="102.07" gradientTransform="matrix(.56521 0 0 -.60266 -19.183 70.781)" gradientUnits="userSpaceOnUse">
   <stop stop-color="#fcfcfc" offset="0"/>
   <stop stop-color="#c1c1c1" offset="1"/>
  </linearGradient>
 </defs>
 <path d="m6.5 1.8722c5.8015 0 21.021 0.00228 21.021 0.00228l13.979 14.352 3.6e-5 29.651h-35v-44.006z" fill="none" stroke="#000" stroke-opacity=".54902"/>
 <path d="m6.5 1.8942c5.8015 0 20.954 0.00228 20.954 0.00228l14.046 14.33 3.6e-5 29.673h-35v-44.006z" fill="url(#b)"/>
 <path d="m13.5 19.25c-0.4155 0-0.75 0.3345-0.75 0.75v15c0 0.4155 0.3345 0.75 0.75 0.75h21c0.4155 0 0.75-0.3345 0.75-0.75v-15c0-0.4155-0.3345-0.75-0.75-0.75zm15 0.75a0.75 0.75 0 0 1 0.75 0.75 0.75 0.75 0 0 1-0.75 0.75 0.75 0.75 0 0 1-0.75-0.75 0.75 0.75 0 0 1 0.75-0.75zm2.25 0a0.75 0.75 0 0 1 0.75 0.75 0.75 0.75 0 0 1-0.75 0.75 0.75 0.75 0 0 1-0.75-0.75 0.75 0.75 0 0 1 0.75-0.75zm2.25 0a0.75 0.75 0 0 1 0.75 0.75 0.75 0.75 0 0 1-0.75 0.75 0.75 0.75 0 0 1-0.75-0.75 0.75 0.75 0 0 1 0.75-0.75zm-19.5 2.25h4.5v12.75h-4.5zm5.25 0h15.75v12.75h-15.75z" fill="#80e06a" fill-rule="evenodd" style="paint-order:fill markers stroke"/>
 <path d="m6.5 1.8942c5.8015 0 20.954 0.00228 20.954 0.00228l14.046 14.33 3.6e-5 29.673h-35v-44.006z" fill="url(#a)"/>
 <rect x="19.632" y="1.8722" width="21.868" height="24.125" fill="none"/>
 <path d="m29.349 14.212c-0.04524-3.4428 0.09264-9.2334-1.8427-12.276 0 0 12.641 12.709 13.994 14.29 0 0-2.3483-1.8776-12.152-2.0143z" fill="url(#c)"/>
</svg>

<?xml version="1.0" encoding="UTF-8" standalone="no"?>
<svg
   width="48"
   height="48"
   version="1.1"
   id="svg31"
   sodipodi:docname="text-x-qml.svg"
   inkscape:version="1.2.1 (9c6d41e410, 2022-07-14)"
   xmlns:inkscape="http://www.inkscape.org/namespaces/inkscape"
   xmlns:sodipodi="http://sodipodi.sourceforge.net/DTD/sodipodi-0.dtd"
   xmlns:xlink="http://www.w3.org/1999/xlink"
   xmlns="http://www.w3.org/2000/svg"
   xmlns:svg="http://www.w3.org/2000/svg">
  <sodipodi:namedview
     id="namedview33"
     pagecolor="#ffffff"
     bordercolor="#999999"
     borderopacity="1"
     inkscape:showpageshadow="0"
     inkscape:pageopacity="0"
     inkscape:pagecheckerboard="0"
     inkscape:deskcolor="#d1d1d1"
     showgrid="false"
     inkscape:zoom="6.4523494"
     inkscape:cx="74.856455"
     inkscape:cy="26.966922"
     inkscape:window-width="1920"
     inkscape:window-height="1004"
     inkscape:window-x="0"
     inkscape:window-y="0"
     inkscape:window-maximized="1"
     inkscape:current-layer="svg31" />
  <defs
     id="defs17">
    <linearGradient
       id="b"
       x1="25.132"
       x2="25.132"
       y1=".98521"
       y2="47.013"
       gradientTransform="matrix(1,0,0,0.95617,62.014349,-0.51792)"
       gradientUnits="userSpaceOnUse">
      <stop
         stop-color="#dadada"
         offset="0"
         id="stop2" />
      <stop
         stop-color="#fff"
         offset="1"
         id="stop4" />
    </linearGradient>
    <radialGradient
       id="a"
       cx="26.53"
       cy="23.566"
       r="17.5"
       gradientTransform="matrix(-1.7302,-0.0033869,0.0034626,-1.7689,188.97667,43.647)"
       gradientUnits="userSpaceOnUse">
      <stop
         stop-opacity=".65926"
         offset="0"
         id="stop7" />
      <stop
         stop-color="#cecece"
         stop-opacity="0"
         offset="1"
         id="stop9" />
    </radialGradient>
    <linearGradient
       id="c"
       x1="91.308"
       x2="95.182"
       y1="98.192"
       y2="102.07"
       gradientTransform="matrix(0.56521,0,0,-0.60266,42.831349,70.781)"
       gradientUnits="userSpaceOnUse">
      <stop
         stop-color="#fcfcfc"
         offset="0"
         id="stop12" />
      <stop
         stop-color="#c1c1c1"
         offset="1"
         id="stop14" />
    </linearGradient>
    <linearGradient
       id="linearGradient1954"
       x1="-19"
       x2="-19"
       y1="6"
       y2="47"
       gradientTransform="translate(-24.298,-2.0447)"
       gradientUnits="userSpaceOnUse">
      <stop
         stop-color="#37a476"
         offset="0"
         id="stop388" />
      <stop
         stop-color="#2b7e53"
         offset="1"
         id="stop390" />
    </linearGradient>
    <linearGradient
       id="linearGradient6915"
       x1="3"
       x2="-1"
       y1="5"
       y2="9"
       gradientTransform="rotate(180,-14.149,8.9776)"
       gradientUnits="userSpaceOnUse">
      <stop
         stop-color="#37a174"
         offset="0"
         id="stop393" />
      <stop
         stop-color="#359b67"
         offset="1"
         id="stop395" />
    </linearGradient>
  </defs>
  <g
     transform="translate(62.298,0.544715)"
     id="g406">
    <path
       d="m -52.298,1.9553 c -2.216,0 -4,1.784 -4,4 v 36 c 0,2.216 1.784,4 4,4 h 28 c 2.216,0 4,-1.784 4,-4 v -28 l -12,-12 z"
       fill="url(#linearGradient1954)"
       fill-rule="evenodd"
       stroke-linecap="round"
       stroke-linejoin="round"
       stroke-width="1.7841"
       style="fill:url(#linearGradient1954);paint-order:stroke fill markers"
       id="path400" />
    <image
       x="-34.298"
       y="0.95526999"
       width="16"
       height="16"
       preserveAspectRatio="none"
       xlink:href="data:image/png;base64,iVBORw0KGgoAAAANSUhEUgAAABAAAAAQCAYAAAAf8/9hAAAACXBIWXMAAA7DAAAOwwHHb6hkAAAA GXRFWHRTb2Z0d2FyZQB3d3cuaW5rc2NhcGUub3Jnm+48GgAAAS1JREFUOI2d0r1qAkEQB/D5uLtc 4R2i2BwWC0qadClShWCZJqWPkXfw0awDQppYW0iuEGwkmLtz55/CIocxJOvAwO4Wv53ZWaJjMF0Y SjQT59zVaHTHZblAKCCTCUmep3kUWW88fk5Cq9F+/1oBzgHrJkktnc59vd2+2L8rICJK0wMDlqhy L8s++iGVyPcyJkCDEWlvAONQRE4PQpEfQChyFghBJMsK1LUZUXMRIoPBG0SiWsTOzv4vRJfLJTn3 AO8tNaOY+VxbYCJVESRxXHP7sykR0Xr9aEWx8yIcMbMAHoAA4FYSAGNmiVXJhsPbuiwXpscb5ijL p8Y523vfVIBVcWyfqrZvpwjto0iqw0F8t1s1q9WrP31Vnk6nstnc8G73/uvss6zAfE5GNLMv3DGy x2V2bBMAAAAASUVORK5CYII= "
       id="image402" />
    <path
       d="m -20.298,13.955 -12,-12 v 8 c 0,2.216 1.784,4 4,4 z"
       fill="url(#linearGradient6915)"
       fill-rule="evenodd"
       stroke-linecap="round"
       stroke-linejoin="round"
       stroke-width="1.7841"
       style="fill:url(#linearGradient6915);paint-order:stroke fill markers"
       id="path404" />
  </g>
  <path
     d="m 13.5,19.25 c -0.4155,0 -0.75,0.3345 -0.75,0.75 v 15 c 0,0.4155 0.3345,0.75 0.75,0.75 h 21 c 0.4155,0 0.75,-0.3345 0.75,-0.75 V 20 c 0,-0.4155 -0.3345,-0.75 -0.75,-0.75 z M 28.5,20 A 0.75,0.75 0 0 1 29.25,20.75 0.75,0.75 0 0 1 28.5,21.5 0.75,0.75 0 0 1 27.75,20.75 0.75,0.75 0 0 1 28.5,20 Z m 2.25,0 A 0.75,0.75 0 0 1 31.5,20.75 0.75,0.75 0 0 1 30.75,21.5 0.75,0.75 0 0 1 30,20.75 0.75,0.75 0 0 1 30.75,20 Z M 33,20 A 0.75,0.75 0 0 1 33.75,20.75 0.75,0.75 0 0 1 33,21.5 0.75,0.75 0 0 1 32.25,20.75 0.75,0.75 0 0 1 33,20 Z M 13.5,22.25 H 18 V 35 h -4.5 z m 5.25,0 H 34.5 V 35 H 18.75 Z"
     fill-rule="evenodd"
     style="paint-order:fill markers stroke;fill:#ffffff;fill-opacity:1"
     id="path584" />
</svg>
